;FLAVOR:Marlin
;TIME:775
;Filament used: 0.2553m
;Layer height: 0.2
;MINX:91.156
;MINY:90.75
;MINZ:0.2
;MAXX:128.844
;MAXY:121.25
;MAXZ:8
;Generated with Cura_SteamEngine 4.13.1
M140 S60
M105
M190 S60
M104 S200
M105
M109 S200
M82 ;absolute extrusion mode
; Ender 3 Custom Start G-code
G92 E0 ; Reset Extruder
G28 ; Home all axes
G1 Z2.0 F3000 ; Move Z Axis up little to prevent scratching of Heat Bed
G1 X0.1 Y20 Z0.3 F5000.0 ; Move to start position
G1 X0.1 Y200.0 Z0.3 F1500.0 E15 ; Draw the first line
G1 X0.4 Y200.0 Z0.3 F5000.0 ; Move to side a little
G1 X0.4 Y20 Z0.3 F1500.0 E30 ; Draw the second line
G92 E0 ; Reset Extruder
G1 Z2.0 F3000 ; Move Z Axis up little to prevent scratching of Heat Bed
G1 X5 Y20 Z0.3 F5000.0 ; Move over to prevent blob squish
G92 E0
G92 E0
G1 F1500 E-6.5
;LAYER_COUNT:40
;LAYER:0
M107
G0 F6000 X94.347 Y94.121 Z0.2
;TYPE:SKIRT
G1 F1500 E0
G1 F1200 X95.027 Y93.474 E0.03122
G1 X95.759 Y92.888 E0.06241
G1 X96.538 Y92.366 E0.09359
G1 X97.359 Y91.913 E0.12478
G1 X98.216 Y91.531 E0.15599
G1 X99.102 Y91.223 E0.18719
G1 X100.011 Y90.992 E0.21838
G1 X100.936 Y90.839 E0.24957
G1 X102.011 Y90.762 E0.28541
G1 X102.404 Y90.753 E0.29849
G1 X102.656 Y90.75 E0.30687
G1 X105.971 Y90.751 E0.41713
G1 X106.769 Y90.762 E0.44367
G1 X109.136 Y90.766 E0.5224
G1 X110.624 Y90.75 E0.57189
G1 X117.196 Y90.751 E0.79048
G1 X117.894 Y90.761 E0.81369
G1 X118.83 Y90.815 E0.84488
G1 X119.758 Y90.947 E0.87605
G1 X120.672 Y91.159 E0.90726
G1 X121.564 Y91.448 E0.93845
G1 X122.429 Y91.811 E0.96965
G1 X123.259 Y92.247 E1.00083
G1 X124.05 Y92.752 E1.03204
G1 X124.794 Y93.323 E1.06324
G1 X125.487 Y93.955 E1.09443
G1 X126.124 Y94.643 E1.12562
G1 X126.699 Y95.384 E1.15681
G1 X127.21 Y96.17 E1.18799
G1 X127.652 Y96.998 E1.21921
G1 X128.021 Y97.86 E1.2504
G1 X128.316 Y98.75 E1.28158
G1 X128.534 Y99.662 E1.31277
G1 X128.697 Y100.836 E1.35219
G1 X128.734 Y101.275 E1.36685
G1 X128.755 Y101.562 E1.37642
G1 X128.816 Y102.613 E1.41143
G1 X128.829 Y102.917 E1.42155
G1 X128.839 Y103.247 E1.43253
G1 X128.844 Y103.58 E1.44361
G1 X128.843 Y109.65 E1.6455
G1 X128.834 Y110.377 E1.66968
G1 X128.783 Y111.314 E1.70089
G1 X128.651 Y112.242 E1.73207
G1 X128.442 Y113.156 E1.76325
G1 X128.155 Y114.049 E1.79445
G1 X127.793 Y114.915 E1.82567
G1 X127.359 Y115.746 E1.85685
G1 X126.855 Y116.537 E1.88805
G1 X126.286 Y117.282 E1.91923
G1 X125.655 Y117.977 E1.95045
G1 X124.968 Y118.615 E1.98163
G1 X124.229 Y119.192 E2.01281
G1 X123.443 Y119.704 E2.04401
G1 X122.617 Y120.147 E2.07519
G1 X121.755 Y120.519 E2.10642
G1 X120.866 Y120.815 E2.13758
G1 X119.954 Y121.035 E2.16878
G1 X119.027 Y121.176 E2.19997
G1 X118.143 Y121.237 E2.22944
G1 X117.822 Y121.246 E2.24012
G1 X117.514 Y121.25 E2.25037
G1 X102.721 Y121.249 E2.74238
G1 X102.023 Y121.24 E2.7656
G1 X101.087 Y121.188 E2.79678
G1 X100.158 Y121.056 E2.82799
G1 X99.244 Y120.846 E2.85918
G1 X98.351 Y120.559 E2.89038
G1 X97.486 Y120.196 E2.92158
G1 X96.655 Y119.762 E2.95276
G1 X95.864 Y119.258 E2.98396
G1 X95.119 Y118.688 E3.01516
G1 X94.425 Y118.057 E3.04635
G1 X93.788 Y117.37 E3.07751
G1 X93.211 Y116.63 E3.10872
G1 X92.699 Y115.844 E3.13992
G1 X92.256 Y115.017 E3.17113
G1 X91.885 Y114.156 E3.20231
G1 X91.589 Y113.266 E3.23351
G1 X91.37 Y112.354 E3.2647
G1 X91.229 Y111.427 E3.29589
G1 X91.169 Y110.538 E3.32552
G1 X91.16 Y110.205 E3.3366
G1 X91.156 Y109.908 E3.34648
G1 X91.157 Y103.801 E3.5496
G1 X91.167 Y103.095 E3.57309
G1 X91.177 Y102.755 E3.5844
G1 X91.192 Y102.448 E3.59462
G1 X91.22 Y101.99 E3.60988
G1 X91.291 Y100.996 E3.64303
G1 X91.303 Y100.822 E3.64883
G1 X91.423 Y99.892 E3.68002
G1 X91.621 Y98.975 E3.71122
G1 X91.897 Y98.079 E3.7424
G1 X92.248 Y97.209 E3.77361
G1 X92.672 Y96.373 E3.80478
G1 X93.166 Y95.575 E3.836
G1 X93.726 Y94.823 E3.86718
G1 X94.347 Y94.121 E3.89836
G0 F6000 X94.742 Y94.29
G1 F1200 X95.418 Y93.665 E3.92898
G1 X96.146 Y93.102 E3.95959
G1 X96.921 Y92.604 E3.99023
G1 X97.735 Y92.175 E4.02083
G1 X98.584 Y91.818 E4.05146
G1 X99.46 Y91.536 E4.08207
G1 X100.358 Y91.332 E4.1127
G1 X101.27 Y91.206 E4.14332
G1 X102.02 Y91.162 E4.16831
G1 X102.413 Y91.153 E4.18138
G1 X102.656 Y91.15 E4.18947
G1 X105.966 Y91.151 E4.29956
G1 X106.764 Y91.162 E4.3261
G1 X109.14 Y91.166 E4.40513
G1 X110.624 Y91.15 E4.45449
G1 X117.19 Y91.151 E4.67288
G1 X117.888 Y91.161 E4.69609
G1 X118.807 Y91.214 E4.72671
G1 X119.718 Y91.347 E4.75733
G1 X120.614 Y91.558 E4.78795
G1 X121.488 Y91.846 E4.81856
G1 X122.335 Y92.209 E4.8492
G1 X123.146 Y92.644 E4.87981
G1 X123.916 Y93.148 E4.91042
G1 X124.64 Y93.717 E4.94105
G1 X125.312 Y94.347 E4.97169
G1 X125.927 Y95.032 E5.0023
G1 X126.48 Y95.768 E5.03292
G1 X126.967 Y96.549 E5.06354
G1 X127.384 Y97.37 E5.09416
G1 X127.729 Y98.224 E5.1248
G1 X127.998 Y99.104 E5.1554
G1 X128.19 Y100.005 E5.18604
G1 X128.299 Y100.87 E5.21504
G1 X128.336 Y101.309 E5.22969
G1 X128.355 Y101.585 E5.2389
G1 X128.416 Y102.636 E5.27391
G1 X128.429 Y102.929 E5.28367
G1 X128.439 Y103.259 E5.29465
G1 X128.444 Y103.58 E5.30532
G1 X128.443 Y109.645 E5.50705
G1 X128.434 Y110.372 E5.53123
G1 X128.383 Y111.291 E5.56184
G1 X128.252 Y112.203 E5.59249
G1 X128.042 Y113.099 E5.6231
G1 X127.756 Y113.974 E5.65371
G1 X127.395 Y114.821 E5.68434
G1 X126.961 Y115.633 E5.71496
G1 X126.459 Y116.405 E5.74559
G1 X125.891 Y117.13 E5.77622
G1 X125.263 Y117.803 E5.80684
G1 X124.579 Y118.419 E5.83745
G1 X123.844 Y118.973 E5.86806
G1 X123.064 Y119.462 E5.89868
G1 X122.244 Y119.881 E5.92931
G1 X121.391 Y120.227 E5.95993
G1 X120.511 Y120.498 E5.99055
G1 X119.611 Y120.691 E6.02117
G1 X118.697 Y120.806 E6.05181
G1 X118.132 Y120.837 E6.07063
G1 X117.811 Y120.846 E6.08131
G1 X117.514 Y120.85 E6.09119
G1 X102.726 Y120.849 E6.58304
G1 X102.028 Y120.84 E6.60626
G1 X101.109 Y120.788 E6.63687
G1 X100.198 Y120.657 E6.66748
G1 X99.302 Y120.447 E6.69809
G1 X98.427 Y120.16 E6.72872
G1 X97.58 Y119.798 E6.75936
G1 X96.768 Y119.364 E6.78998
G1 X95.997 Y118.862 E6.82058
G1 X95.272 Y118.294 E6.85121
G1 X94.599 Y117.665 E6.88185
G1 X93.984 Y116.981 E6.91244
G1 X93.43 Y116.246 E6.94306
G1 X92.942 Y115.465 E6.97369
G1 X92.523 Y114.645 E7.00431
G1 X92.177 Y113.792 E7.03493
G1 X91.907 Y112.912 E7.06555
G1 X91.714 Y112.011 E7.09619
G1 X91.6 Y111.098 E7.12679
G1 X91.569 Y110.527 E7.14581
G1 X91.56 Y110.194 E7.15689
G1 X91.556 Y109.908 E7.16641
G1 X91.557 Y103.807 E7.36933
G1 X91.567 Y103.101 E7.39281
G1 X91.577 Y102.773 E7.40373
G1 X91.591 Y102.472 E7.41375
G1 X91.619 Y102.019 E7.42884
G1 X91.69 Y101.025 E7.46199
G1 X91.703 Y100.839 E7.46819
G1 X91.823 Y99.926 E7.49882
G1 X92.021 Y99.027 E7.52944
G1 X92.297 Y98.149 E7.56005
G1 X92.648 Y97.298 E7.59066
G1 X93.071 Y96.48 E7.62129
G1 X93.564 Y95.703 E7.6519
G1 X94.122 Y94.971 E7.68251
G1 X94.742 Y94.29 E7.71314
G0 F6000 X95.136 Y94.462
G1 F1200 X95.809 Y93.861 E7.74315
G1 X96.533 Y93.321 E7.77319
G1 X97.302 Y92.847 E7.80324
G1 X98.109 Y92.443 E7.83326
G1 X98.95 Y92.112 E7.86332
G1 X99.816 Y91.857 E7.89334
G1 X100.701 Y91.679 E7.92337
G1 X102.029 Y91.562 E7.96771
G1 X102.422 Y91.553 E7.98078
G1 X102.656 Y91.55 E7.98857
G1 X105.96 Y91.551 E8.09846
G1 X106.757 Y91.562 E8.12497
G1 X109.143 Y91.566 E8.20433
G1 X110.624 Y91.55 E8.25359
G1 X117.184 Y91.551 E8.47178
G1 X117.882 Y91.561 E8.49499
G1 X118.784 Y91.614 E8.52505
G1 X119.677 Y91.746 E8.55507
G1 X120.555 Y91.957 E8.5851
G1 X121.411 Y92.245 E8.61514
G1 X122.238 Y92.607 E8.64517
G1 X123.03 Y93.042 E8.67522
G1 X123.781 Y93.544 E8.70527
G1 X124.484 Y94.111 E8.73531
G1 X125.134 Y94.738 E8.76534
G1 X125.726 Y95.42 E8.79538
G1 X126.256 Y96.151 E8.82541
G1 X126.718 Y96.927 E8.85545
G1 X127.111 Y97.74 E8.88548
G1 X127.429 Y98.585 E8.91551
G1 X127.672 Y99.455 E8.94556
G1 X127.837 Y100.343 E8.9756
G1 X127.9 Y100.903 E8.99434
G1 X127.937 Y101.342 E9.00899
G1 X127.956 Y101.608 E9.01786
G1 X128.017 Y102.659 E9.05288
G1 X128.029 Y102.941 E9.06227
G1 X128.039 Y103.271 E9.07325
G1 X128.044 Y103.58 E9.08353
G1 X128.043 Y109.64 E9.28508
G1 X128.034 Y110.367 E9.30926
G1 X127.983 Y111.269 E9.33931
G1 X127.852 Y112.163 E9.36937
G1 X127.643 Y113.041 E9.39938
G1 X127.357 Y113.898 E9.42943
G1 X126.996 Y114.726 E9.45948
G1 X126.564 Y115.518 E9.48948
G1 X126.063 Y116.27 E9.51954
G1 X125.497 Y116.974 E9.54958
G1 X124.872 Y117.625 E9.5796
G1 X124.191 Y118.219 E9.60965
G1 X123.46 Y118.75 E9.6397
G1 X122.686 Y119.214 E9.66972
G1 X121.873 Y119.608 E9.69977
G1 X121.029 Y119.928 E9.72979
G1 X120.159 Y120.173 E9.75985
G1 X119.272 Y120.339 E9.78986
G1 X118.121 Y120.437 E9.82828
G1 X117.8 Y120.446 E9.83896
G1 X117.514 Y120.45 E9.84848
G1 X102.731 Y120.449 E10.34016
G1 X102.033 Y120.44 E10.36338
G1 X101.132 Y120.389 E10.3934
G1 X100.238 Y120.257 E10.42345
G1 X99.36 Y120.048 E10.45347
G1 X98.503 Y119.761 E10.48353
G1 X97.676 Y119.4 E10.51354
G1 X96.883 Y118.967 E10.54359
G1 X96.132 Y118.466 E10.57362
G1 X95.428 Y117.9 E10.60366
G1 X94.777 Y117.274 E10.6337
G1 X94.184 Y116.593 E10.66374
G1 X93.654 Y115.862 E10.69377
G1 X93.19 Y115.087 E10.72381
G1 X92.796 Y114.274 E10.75386
G1 X92.476 Y113.43 E10.78388
G1 X92.232 Y112.56 E10.81394
G1 X92.066 Y111.672 E10.84398
G1 X91.969 Y110.517 E10.88253
G1 X91.96 Y110.184 E10.89361
G1 X91.956 Y109.908 E10.90279
G1 X91.957 Y103.813 E11.10551
G1 X91.967 Y103.107 E11.129
G1 X91.976 Y102.791 E11.13951
G1 X91.991 Y102.495 E11.14937
G1 X92.018 Y102.047 E11.1643
G1 X92.089 Y101.053 E11.19744
G1 X92.103 Y100.857 E11.20398
G1 X92.223 Y99.962 E11.23401
G1 X92.421 Y99.081 E11.26404
G1 X92.696 Y98.221 E11.29408
G1 X93.047 Y97.388 E11.32414
G1 X93.47 Y96.59 E11.35418
G1 X93.961 Y95.833 E11.38419
G1 X94.518 Y95.122 E11.41423
G1 X95.136 Y94.462 E11.4443
G0 F6000 X110.177 Y101.95
G1 F1200 X112.676 Y101.95 E11.52742
G1 X112.676 Y102.25 E11.5374
G1 X110.177 Y102.25 E11.62052
G1 X110.177 Y101.95 E11.63049
G1 F1500 E5.13049
;MESH:IR Sensor housing.stl
G0 F6000 X110.177 Y103.57
G0 X114.496 Y103.768
G0 X115.397 Y104.06
G0 X116.19 Y104.637
G0 X117.244 Y106.113
;TYPE:WALL-INNER
G1 F1500 E11.63049
G1 F1200 X117.15 Y105.725 E11.64377
G1 X116.949 Y105.251 E11.6609
G1 X116.684 Y104.819 E11.67775
G1 X116.422 Y104.517 E11.69105
G1 X116.396 Y104.469 E11.69287
G1 X115.956 Y104.096 E11.71205
G1 X115.516 Y103.826 E11.72922
G1 X115.038 Y103.629 E11.74642
G1 X114.537 Y103.51 E11.76354
G1 X114.276 Y103.489 E11.77225
G1 X114.276 Y102.35 E11.81014
G1 X117.145 Y102.35 E11.90556
G1 X117.145 Y103.85 E11.95545
G1 X117.244 Y103.85 E11.95874
G1 X117.244 Y105.251 E12.00534
G1 X117.244 Y106.113 E12.0225
G0 F6000 X117.244 Y107.383
G1 F1200 X117.244 Y108.231 E12.0507
G1 X117.244 Y109.65 E12.0979
G1 X115.963 Y109.65 E12.1405
G1 X115.555 Y109.65 E12.15407
G1 X115.963 Y109.398 E12.16029
G1 X116.355 Y109.064 E12.17742
G1 X116.69 Y108.672 E12.19457
G1 X116.959 Y108.231 E12.21175
G1 X117.156 Y107.756 E12.21701
G1 X117.244 Y107.383 E12.22976
G0 F6000 X116.901 Y105.807
G0 X116.473 Y104.974
G0 X116.19 Y104.637
G0 X115.397 Y104.06
G0 X114.496 Y103.768
G0 X113.96 Y103.768
G0 X112.488 Y103.85
G1 F1200 X112.086 Y104.096 E12.24543
G1 X111.695 Y104.429 E12.26251
G1 X111.358 Y104.82 E12.27968
G1 X111.088 Y105.26 E12.29685
G1 X110.893 Y105.724 E12.31359
G1 X110.772 Y106.221 E12.33061
G1 X110.704 Y106.751 E12.34838
G1 X110.775 Y107.287 E12.36636
G1 X110.89 Y107.766 E12.38275
G1 X111.094 Y108.248 E12.40015
G1 X111.358 Y108.68 E12.41699
G1 X111.695 Y109.07 E12.43414
G1 X112.085 Y109.404 E12.45121
G1 X112.488 Y109.65 E12.46692
G1 X112.085 Y109.65 E12.47064
G1 X108.158 Y109.65 E12.60125
G1 X107.717 Y109.65 E12.61592
G1 X107.809 Y109.612 E12.61923
G1 X108.158 Y109.344 E12.62865
G1 X108.493 Y109.087 E12.64269
G1 X109.018 Y108.403 E12.67137
G1 X109.349 Y107.605 E12.7001
G1 X109.461 Y106.75 E12.72878
G1 X109.349 Y105.895 E12.75747
G1 X109.018 Y105.097 E12.7862
G1 X108.493 Y104.413 E12.81488
G1 X107.809 Y103.888 E12.84356
G1 X107.717 Y103.85 E12.84687
G1 X108.248 Y103.85 E12.85878
G1 X112.086 Y103.85 E12.98643
G1 X112.488 Y103.85 E12.99014
G1 F1500 E6.49014
G0 F6000 X111.569 Y104.975
G0 X111.142 Y105.807
G0 X110.966 Y106.75
G0 X111.138 Y107.684
G0 X111.569 Y108.525
G0 X112.239 Y109.192
G0 X112.931 Y109.541
G0 X114.016 Y109.828
G1 F1500 E12.99014
G0 F6000 X114.031 Y109.63
;TYPE:WALL-OUTER
G1 F1200 X114.483 Y109.592 E13.00523
G1 X114.923 Y109.486 E13.02028
G1 X115.341 Y109.312 E13.03534
G1 X115.727 Y109.074 E13.05042
G1 X116.071 Y108.78 E13.06547
G1 X116.365 Y108.436 E13.08052
G1 X116.601 Y108.049 E13.0956
G1 X116.774 Y107.632 E13.11062
G1 X116.877 Y107.197 E13.12548
G1 X116.935 Y106.741 E13.14077
G1 X116.874 Y106.286 E13.15604
G1 X116.769 Y105.851 E13.17093
G1 X116.592 Y105.435 E13.18596
G1 X116.36 Y105.056 E13.20074
G1 X116.092 Y104.748 E13.21432
G1 X116.08 Y104.726 E13.21515
G1 X115.721 Y104.421 E13.23082
G1 X115.334 Y104.184 E13.24592
G1 X114.915 Y104.011 E13.26099
G1 X114.474 Y103.906 E13.27607
G1 X114.022 Y103.87 E13.29115
G1 X113.57 Y103.906 E13.30623
G1 X113.128 Y104.011 E13.32134
G1 X112.709 Y104.184 E13.33642
G1 X112.322 Y104.421 E13.35151
G1 X111.978 Y104.714 E13.36654
G1 X111.682 Y105.057 E13.38161
G1 X111.445 Y105.443 E13.39668
G1 X111.274 Y105.85 E13.41136
G1 X111.166 Y106.294 E13.42656
G1 X111.107 Y106.75 E13.44185
G1 X111.169 Y107.214 E13.45742
G1 X111.271 Y107.641 E13.47202
G1 X111.451 Y108.065 E13.48734
G1 X111.682 Y108.443 E13.50208
G1 X111.978 Y108.786 E13.51715
G1 X112.321 Y109.079 E13.53215
G1 X112.708 Y109.316 E13.54724
G1 X113.137 Y109.491 E13.56265
G1 X113.569 Y109.594 E13.57743
G1 X114.031 Y109.63 E13.59284
G0 F6000 X114.016 Y109.828
G0 X106.156 Y109.793
G0 X104.595 Y109.65
;TYPE:WALL-INNER
G1 F1200 X104.064 Y109.65 E13.6105
G1 X102.756 Y109.65 E13.654
G1 X102.756 Y108.087 E13.70599
G1 X102.756 Y107.605 E13.72202
G1 X102.756 Y106.75 E13.75046
G1 X102.756 Y105.895 E13.7789
G1 X102.756 Y105.413 E13.79493
G1 X102.756 Y103.85 E13.84691
G1 X102.854 Y103.85 E13.85017
G1 X102.855 Y102.35 E13.90006
G1 X105.89 Y102.35 E14.00101
G1 X105.891 Y103.48 E14.03859
G1 X105.301 Y103.557 E14.05838
G1 X104.503 Y103.888 E14.08711
G1 X103.819 Y104.413 E14.11579
G1 X103.294 Y105.097 E14.14447
G1 X102.963 Y105.895 E14.16981
G1 X102.851 Y106.75 E14.18078
G1 X102.963 Y107.605 E14.19175
G1 X103.294 Y108.403 E14.21708
G1 X103.819 Y109.087 E14.24576
G1 X104.503 Y109.612 E14.26869
G1 X104.595 Y109.65 E14.272
G1 F1500 E7.772
G0 F6000 X106.129 Y109.85
G1 F1500 E14.272
G0 F6000 X106.156 Y109.652
;TYPE:WALL-OUTER
G1 F1200 X106.907 Y109.553 E14.2972
G1 X107.607 Y109.263 E14.3224
G1 X108.208 Y108.802 E14.34759
G1 X108.669 Y108.201 E14.37278
G1 X108.959 Y107.501 E14.39798
G1 X109.058 Y106.75 E14.42318
G1 X108.959 Y105.999 E14.44837
G1 X108.669 Y105.299 E14.47357
G1 X108.208 Y104.698 E14.49877
G1 X107.607 Y104.237 E14.52396
G1 X106.907 Y103.947 E14.54916
G1 X106.156 Y103.848 E14.57435
G1 X105.405 Y103.947 E14.59955
G1 X104.705 Y104.237 E14.62475
G1 X104.104 Y104.698 E14.64994
G1 X103.643 Y105.299 E14.67513
G1 X103.353 Y105.999 E14.70034
G1 X103.254 Y106.75 E14.72553
G1 X103.353 Y107.501 E14.75072
G1 X103.643 Y108.201 E14.77593
G1 X104.104 Y108.802 E14.80112
G1 X104.705 Y109.263 E14.82631
G1 X105.405 Y109.553 E14.85151
G1 X106.156 Y109.652 E14.87671
G1 F1500 E8.37671
G0 F6000 X106.129 Y109.85
G0 X117.474 Y109.88
G1 F1500 E14.87671
G0 F6000 X117.644 Y110.05
G1 F1200 X102.356 Y110.05 E15.38519
G1 X102.356 Y103.45 E15.6047
G1 X102.454 Y103.45 E15.60796
G1 X102.455 Y101.95 E15.65785
G1 X106.29 Y101.95 E15.78541
G1 X106.291 Y103.45 E15.8353
G1 X113.876 Y103.45 E16.08758
G1 X113.876 Y101.95 E16.13747
G1 X117.545 Y101.95 E16.2595
G1 X117.545 Y103.45 E16.30939
G1 X117.644 Y103.45 E16.31268
G1 X117.644 Y110.05 E16.5322
G0 F6000 X117.474 Y109.88
G0 X117.134 Y109.26
G0 X116.854 Y109.26
;TYPE:SKIN
G1 F1200 X116.701 Y109.26 E16.53729
G1 X116.854 Y109.08 E16.54514
G1 X116.854 Y109.26 E16.55113
G0 F6000 X116.56 Y109.489
;TYPE:SKIN
G1 F1200 X116.349 Y109.278 E16.55609
G0 F6000 X116.196 Y109.408
G1 F1200 X116.278 Y109.489 E16.55801
G0 F6000 X116.79 Y108.871
G1 F1200 X116.757 Y108.837 E16.5588
G0 F6000 X116.875 Y108.673
G1 F1200 X117.082 Y108.88 E16.56366
G0 F6000 X117.082 Y108.597
G1 F1200 X116.982 Y108.497 E16.56602
G0 F6000 X116.942 Y108.472
G0 X117.017 Y107.492
G0 X117.134 Y104.419
G0 X116.854 Y104.419
;TYPE:SKIN
G1 F1200 X116.704 Y104.219 E16.57433
